svg/pills_4_positive.svg

<?xml version="1.0" encoding="UTF-8" standalone="no"?>
<!-- Created with Inkscape (http://www.inkscape.org/) -->
<svg id="svg8" xmlns:rdf="http://www.w3.org/1999/02/22-rdf-syntax-ns#" xmlns="http://www.w3.org/2000/svg" xmlns:osb="http://www.openswatchbook.org/uri/2009/osb" height="48" width="48" version="1.1" xmlns:cc="http://creativecommons.org/ns#" viewBox="0 0 12.7 12.7" xmlns:dc="http://purl.org/dc/elements/1.1/">
 <title id="title4753">UIO-icon</title>
 <metadata id="metadata5">
  <rdf:RDF>
   <cc:Work rdf:about="">
    <dc:format>image/svg+xml</dc:format>
    <dc:type rdf:resource="http://purl.org/dc/dcmitype/StillImage"/>
    <dc:title>UIO-icon</dc:title>
    <dc:creator>
     <cc:Agent>
      <dc:title>Joaquín Urbano</dc:title>
     </cc:Agent>
    </dc:creator>
    <dc:rights>
     <cc:Agent>
      <dc:title>GPL</dc:title>
     </cc:Agent>
    </dc:rights>
   </cc:Work>
  </rdf:RDF>
 </metadata>
 <g id="layer1" transform="translate(0,-284.3)" fill="#333">
  <path id="path878" d="m13.752 4.0039c-1.662-0.0511-3.357 0.334-4.9102 1.1973-4.1292 2.3045-5.8954 7.2498-4.2871 11.59 0.16205 0.47669 0.35942 0.6502 0.57422 0.67188 0.2148 0.021694 0.44786-0.1082 0.68164-0.23828l14.886-8.2836c0.43831-0.24388 0.77472-0.59067 0.2832-1.2656-1.7782-2.2924-4.458-3.5867-7.2285-3.6719zm20.625 0.025391c-0.56358 0.0047509-1.1329 0.061021-1.7012 0.16992-0.49688 0.081305-0.70104 0.24678-0.75781 0.45508-0.056786 0.20829 0.03326 0.46087 0.12305 0.71289l5.7168 16.047c0.12625 0.35437 0.31913 0.66279 0.72266 0.63672 0.13451-0.008693 0.29184-0.055038 0.47852-0.14844 4.0864-2.202 6.0297-7.0993 4.4414-11.564-1.3936-3.8959-5.0784-6.3418-9.0234-6.3086zm-3.9844 0.99805c-0.13507 0.0097839-0.29124 0.056374-0.47461 0.14844-2.5469 1.379-4.2586 3.8059-4.7969 6.5215-0.32298 1.6293-0.22369 3.363 0.37109 5.0352 1.3979 3.9076 5.1019 6.3534 9.0605 6.3047 0.56551-0.006954 1.1371-0.06396 1.707-0.17578 0.94268-0.16163 0.77261-0.65277 0.61133-1.1055l-5.746-16.126c-0.12-0.3361-0.327-0.631-0.732-0.6017zm-8.5781 4.5156c-0.207-0.0218-0.425 0.0999-0.635 0.2168l-14.959 8.3242c-0.41561 0.23125-0.73211 0.60284-0.24805 1.2656 1.7797 2.285 4.4555 3.5727 7.2227 3.6562 1.6603 0.050132 3.353-0.33317 4.9043-1.1953 4.1416-2.3115 5.905-7.279 4.2715-11.629-0.15736-0.45158-0.35062-0.61689-0.55664-0.63867zm-8.4492 15.432c-0.56551 0.006954-1.1371 0.06396-1.707 0.17578-0.94268 0.16163-0.77261 0.65277-0.61133 1.1055l5.7461 16.127c0.15962 0.44803 0.47355 0.82138 1.207 0.45312 2.5469-1.379 4.2586-3.8059 4.7969-6.5215 0.32298-1.6293 0.22369-3.363-0.37109-5.0352-1.3979-3.9076-5.1019-6.3534-9.0605-6.3047zm21.357 0.03125c-1.6603-0.050132-3.353 0.33317-4.9043 1.1953-4.1416 2.3115-5.905 7.279-4.2715 11.629 0.31472 0.90317 0.77147 0.65554 1.1914 0.42188l14.959-8.3242c0.41561-0.23125 0.73211-0.60284 0.24805-1.2656-1.7797-2.285-4.4555-3.5727-7.2227-3.6562zm-25.286 0.955c-0.1345 0.009-0.2918 0.055-0.4785 0.148-4.0864 2.202-6.0297 7.1-4.4414 11.565 1.5927 4.452 6.1784 7.01 10.724 6.138 0.497-0.081 0.701-0.246 0.758-0.455 0.057-0.208-0.033-0.46-0.123-0.712l-5.7168-16.047c-0.126-0.355-0.319-0.663-0.7225-0.637zm33.352 4.5879c-0.2148-0.021677-0.44786 0.1082-0.68164 0.23828l-14.887 8.283c-0.43831 0.24388-0.77472 0.59067-0.2832 1.2656 2.8452 3.6678 7.9962 4.7768 12.139 2.4746 4.1292-2.3045 5.8954-7.2494 4.2871-11.59-0.16205-0.47669-0.35942-0.6502-0.57422-0.67188z" fill-rule="evenodd" transform="matrix(.26458 0 0 .26458 0 284.3)"/>
 </g>
</svg>

<svg width="48" height="48" viewBox="0 0 48 48" fill="none" xmlns="http://www.w3.org/2000/svg">
<path fill-rule="evenodd" clip-rule="evenodd" d="M13.7518 4.00399C12.0898 3.95289 10.3948 4.33799 8.84164 5.20128C4.71249 7.50575 2.94632 12.451 4.5546 16.7911C4.71664 17.2678 4.91401 17.4413 5.12881 17.463C5.34361 17.4847 5.57666 17.3548 5.81044 17.2247L20.6963 8.94123C21.1346 8.69735 21.471 8.35057 20.9794 7.67565C19.2013 5.38328 16.5215 4.08899 13.751 4.00379L13.7518 4.00399ZM34.3765 4.02938C33.8129 4.03413 33.2436 4.0904 32.6753 4.1993C32.1785 4.28061 31.9743 4.44608 31.9175 4.65438C31.8608 4.86266 31.9508 5.11524 32.0406 5.36726L37.7573 21.4141C37.8836 21.7684 38.0764 22.0768 38.48 22.0508C38.6145 22.0421 38.7718 21.9957 38.9585 21.9023C43.0448 19.7004 44.9881 14.8031 43.3998 10.3385C42.0062 6.44262 38.3215 3.99675 34.3765 4.02995V4.02938ZM30.3922 5.02742C30.2571 5.0372 30.1009 5.08379 29.9176 5.17586C27.3707 6.55484 25.659 8.98171 25.1207 11.6973C24.7978 13.3266 24.897 15.0602 25.4918 16.7324C26.8897 20.64 30.5936 23.0857 34.5522 23.037C35.1177 23.0301 35.6893 22.9731 36.2592 22.8613C37.2018 22.6996 37.0318 22.2085 36.8705 21.7558L31.1246 5.62997C31.0046 5.29388 30.7976 4.99898 30.3926 5.02828L30.3922 5.02742ZM21.8142 9.54296C21.6072 9.52117 21.3892 9.64286 21.1792 9.75976L6.22037 18.0839C5.80477 18.3151 5.48827 18.6867 5.97233 19.3494C7.75201 21.6344 10.4278 22.9221 13.1949 23.0056C14.8552 23.0557 16.5479 22.6724 18.0992 21.8103C22.2407 19.4988 24.0041 14.5314 22.3706 10.1815C22.2133 9.72988 22.0202 9.56474 21.8142 9.54296ZM13.3651 24.9748C12.7996 24.9817 12.228 25.0387 11.6581 25.1505C10.7154 25.3122 10.8855 25.8033 11.0468 26.256L16.7928 42.3828C16.9524 42.8309 17.2664 43.2042 17.9998 42.8359C20.5467 41.457 22.2583 39.0301 22.7966 36.3145C23.1196 34.6853 23.0203 32.9516 22.4256 31.2794C21.0277 27.3718 17.3236 24.9261 13.3651 24.9748ZM34.7218 25.006C33.0615 24.9559 31.3689 25.3392 29.8176 26.2013C25.676 28.5128 23.9127 33.4802 25.5461 37.8302C25.8608 38.7333 26.3176 38.4857 26.7375 38.252L41.6963 29.9279C42.1119 29.6967 42.4284 29.3251 41.9444 28.6624C40.1647 26.3774 37.489 25.0895 34.7218 25.006ZM9.43613 25.961C9.30164 25.97 9.14434 26.016 8.95764 26.109C4.87129 28.311 2.92802 33.2089 4.5163 37.6739C6.10898 42.1258 10.6946 44.6838 15.2402 43.8118C15.7372 43.7308 15.9412 43.5658 15.9982 43.3568C16.0551 43.1488 15.9652 42.8968 15.8752 42.6448L10.1584 26.598C10.0324 26.243 9.83963 25.935 9.43613 25.961ZM42.7877 30.5489C42.5729 30.5272 42.3399 30.6571 42.1061 30.7871L27.2193 39.07C26.781 39.3139 26.4446 39.6607 26.9361 40.3356C29.7812 44.0034 34.9322 45.1123 39.0749 42.8102C43.2041 40.5057 44.9702 35.5609 43.362 31.2203C43.1999 30.7436 43.0026 30.5701 42.7878 30.5485L42.7877 30.5489Z" fill="#333333"/>
</svg>
